X:17601
T:Queen's Jig, The
R:Jig
C:Trad. Playford 1701
O:England
Z:Paul Hardy's Annex Tunebook 2015 (see www.paulhardy.net). Creative Commons cc by-nc-sa licenced.
M:6/8
L:1/8
Q:3/8=100
K:D
A|"D"d2e fdf|"G"g3 "D"f2 g/a/|fgf e2d|"A"e3 "D"A2A|
"D"d2e fdf|"G"g3 "D"f2 a|fgf "A"e2d|("D"d3 d2):|
|:a|"D"aba "G"g2f|"Em"g3 "D"f2 g/a/|fgf "A7"e2d|e3 A2a|
"D"aba "G"g2f|"Em"g3 "D"f2 a|fgf "A7"e2d|("D"d3 d2):|

